client/public/img/socials/kofi.svg

<?xml version="1.0" encoding="UTF-8" standalone="no"?>
<svg
   width="241"
   height="194"
   viewBox="0 0 241 194"
   fill="none"
   version="1.1"
   id="svg7"
   xmlns="http://www.w3.org/2000/svg"
   xmlns:svg="http://www.w3.org/2000/svg">
  <defs
     id="defs7" />
  <mask
     id="mask0_1_219"
     style="mask-type:luminance"
     maskUnits="userSpaceOnUse"
     x="-1"
     y="0"
     width="242"
     height="194">
    <path
       d="M240.469 0.958984H-0.00585938V193.918H240.469V0.958984Z"
       fill="white"
       id="path1" />
  </mask>
  <g
     mask="url(#mask0_1_219)"
     id="g7">
    <path
       d="M96.1344 193.911C61.1312 193.911 32.6597 178.256 15.9721 149.829C1.19788 124.912 -0.00585938 97.9229 -0.00585938 67.7662C-0.00585938 49.8876 5.37293 34.3215 15.5413 22.7466C24.8861 12.1157 38.1271 5.22907 52.8317 3.35378C70.2858 1.14271 91.9848 0.958984 114.545 0.958984C151.259 0.958984 161.63 1.4088 176.075 2.85328C195.29 4.76026 211.458 11.932 222.824 23.5955C234.368 35.4428 240.469 51.2624 240.469 69.3627V72.9994C240.469 103.885 219.821 129.733 191.046 136.759C188.898 141.827 186.237 146.871 183.089 151.837L183.006 151.964C172.869 167.632 149.042 193.918 103.401 193.918H96.1281L96.1344 193.911Z"
       fill="white"
       id="path2" />
    <path
       d="M174.568 17.9772C160.927 16.6151 151.38 16.1589 114.552 16.1589C90.908 16.1589 70.9008 16.387 54.7644 18.4334C33.3949 21.164 15.2058 37.5285 15.2058 67.7674C15.2058 98.0066 16.796 121.422 29.0741 142.107C42.9425 165.751 66.1302 178.707 96.1412 178.707H103.414C140.242 178.707 160.25 159.156 170.253 143.698C174.574 136.874 177.754 130.058 179.801 123.234C205.947 120.96 225.27 99.3624 225.27 72.9941V69.3577C225.27 40.9432 206.631 21.164 174.574 17.9772H174.568Z"
       fill="white"
       id="path3" />
    <path
       d="M15.1975 67.7674C15.1975 37.5285 33.3866 21.164 54.7559 18.4334C70.8987 16.387 90.906 16.1589 114.544 16.1589C151.372 16.1589 160.919 16.6151 174.559 17.9772C206.617 21.1576 225.255 40.937 225.255 69.3577V72.9941C225.255 99.3687 205.932 120.966 179.786 123.234C177.74 130.058 174.559 136.874 170.238 143.698C160.235 159.156 140.228 178.707 103.4 178.707H96.1264C66.1155 178.707 42.9277 165.751 29.0595 142.107C16.7814 121.422 15.1912 98.4563 15.1912 67.7674"
       fill="#202020"
       id="path4" />
    <path
       d="M32.2469 67.9899C32.2469 97.3168 34.0654 116.184 43.6127 133.689C54.5225 153.924 74.3018 161.653 96.8117 161.653H103.857C133.411 161.653 147.736 147.329 155.693 134.829C159.558 128.462 162.966 121.417 164.784 112.547L166.147 106.864H174.332C192.521 106.864 208.208 92.09 208.208 73.2166V69.8082C208.208 48.6669 195.024 37.5228 172.058 34.7987C159.102 33.6646 151.372 33.2084 114.538 33.2084C89.7602 33.2084 72.0272 33.4364 58.6152 35.4828C39.7483 38.2134 32.2407 48.8951 32.2407 67.9899"
       fill="white"
       id="path5" />
    <path
       d="M166.158 83.6801C166.158 86.4107 168.204 88.4572 171.841 88.4572C183.435 88.4572 189.802 81.8619 189.802 70.9523C189.802 60.0427 183.435 53.2195 171.841 53.2195C168.204 53.2195 166.158 55.2657 166.158 57.9963V83.6866V83.6801Z"
       fill="#202020"
       id="path6" />
    <path
       d="M54.5321 82.3198C54.5321 95.732 62.0332 107.326 71.5807 116.424C77.9478 122.562 87.9515 128.93 94.7685 133.022C96.8147 134.157 98.8611 134.841 101.136 134.841C103.866 134.841 106.134 134.157 107.959 133.022C114.782 128.93 124.779 122.562 130.919 116.424C140.694 107.332 148.195 95.7383 148.195 82.3198C148.195 67.7673 137.286 54.8115 121.599 54.8115C112.28 54.8115 105.912 59.5882 101.136 66.1772C96.8147 59.582 90.2259 54.8115 80.9001 54.8115C64.9855 54.8115 54.5256 67.7673 54.5256 82.3198"
       fill="#FF5A16"
       id="path7" />
  </g>
</svg>

<svg xmlns="http://www.w3.org/2000/svg" width="241" height="194" fill="none"><mask id="a" width="242" height="194" x="-1" y="0" maskUnits="userSpaceOnUse" style="mask-type:luminance"><path fill="#fff" d="M240.469.959H-.006v192.959H240.47z"/></mask><g mask="url(#a)"><path fill="#fff" d="M96.134 193.911c-35.003 0-63.474-15.655-80.162-44.082C1.198 124.912-.006 97.923-.006 67.766c0-17.878 5.379-33.445 15.547-45.02 9.345-10.63 22.586-17.517 37.29-19.392C70.287 1.143 91.986.959 114.546.959c36.714 0 47.085.45 61.53 1.894 19.215 1.907 35.383 9.079 46.749 20.743 11.544 11.847 17.645 27.666 17.645 45.767v3.636c0 30.886-20.648 56.734-49.423 63.76-2.148 5.068-4.809 10.112-7.957 15.078l-.083.127c-10.137 15.668-33.964 41.954-79.605 41.954h-7.273z"/><path fill="#fff" d="M174.568 17.977c-13.641-1.362-23.188-1.818-60.016-1.818-23.644 0-43.651.228-59.788 2.274-21.37 2.731-39.558 19.096-39.558 49.334 0 30.24 1.59 53.655 13.868 74.34 13.869 23.644 37.056 36.6 67.067 36.6h7.273c36.828 0 56.836-19.551 66.839-35.009 4.321-6.824 7.501-13.64 9.548-20.464 26.146-2.274 45.469-23.872 45.469-50.24v-3.636c0-28.415-18.639-48.194-50.696-51.38z"/><path fill="#202020" d="M15.198 67.767c0-30.238 18.189-46.603 39.558-49.334 16.143-2.046 36.15-2.274 59.788-2.274 36.828 0 46.375.456 60.015 1.818 32.058 3.18 50.696 22.96 50.696 51.38v3.637c0 26.375-19.323 47.972-45.469 50.24-2.046 6.824-5.227 13.64-9.548 20.464-10.003 15.458-30.01 35.009-66.838 35.009h-7.274c-30.01 0-53.198-12.956-67.066-36.6-12.279-20.685-13.869-43.65-13.869-74.34"/><path fill="#fff" d="M32.247 67.99c0 29.327 1.818 48.194 11.366 65.699 10.91 20.235 30.689 27.964 53.199 27.964h7.045c29.554 0 43.879-14.324 51.836-26.824 3.865-6.367 7.273-13.412 9.091-22.282l1.363-5.683h8.185c18.189 0 33.876-14.774 33.876-33.647v-3.409c0-21.141-13.184-32.285-36.15-35.01-12.956-1.133-20.686-1.59-57.52-1.59-24.778 0-42.51.228-55.923 2.275-18.867 2.73-26.374 13.412-26.374 32.507"/><path fill="#202020" d="M166.158 83.68c0 2.73 2.046 4.777 5.683 4.777 11.594 0 17.961-6.595 17.961-17.505s-6.367-17.732-17.961-17.732c-3.637 0-5.683 2.046-5.683 4.776v25.69z"/><path fill="#FF5A16" d="M54.532 82.32c0 13.412 7.501 25.006 17.049 34.104 6.367 6.138 16.37 12.506 23.188 16.598 2.046 1.135 4.092 1.819 6.367 1.819 2.73 0 4.998-.684 6.823-1.819 6.823-4.092 16.82-10.46 22.96-16.598 9.775-9.092 17.276-20.686 17.276-34.104 0-14.553-10.909-27.508-26.596-27.508-9.319 0-15.687 4.776-20.463 11.365-4.321-6.595-10.91-11.366-20.236-11.366-15.915 0-26.374 12.956-26.374 27.509"/></g></svg>
